X:1
T:Otto Langey 048
T:Otto Langey 048
T:N. Bousquet
C:N. Bousquet
%%score 1 2
L:1/8
Q:1/4=80
M:4/4
K:F
V:1 treble nm="Pupil" snm="Pup"
V:2 treble nm="Master" snm="Mas"
V:1
 ab | c'6 fg | a6 (d'c') | g3 ^f gfga | (f4 c2) z2 | (Ac)fc AcAc | (FA)cf a2 gf | e3 f (ga b2) | %8
 z (BcB) A2 a>a | (a3 g) e(bab) | a3 f d2 a>a | d'2 d'e' (f'2 ^g2) | a6 z2 | (Ac)fc AcAc | %14
 (FA)cf a2 ba | (ge)ce cece | ffga bc'd'e' | (f'4 f')e'd'c' | (e'4 e')d'c'b | (ad')c'a (fg)fd | %20
 cfac' (d'3 c') | f4 f2 f2 | f4 z4 |] %23
V:2
 z2 | (Ac)fc (Ac)Ac | (FA)cf a2 z2 | (Bc)ec (Bc)Bc | Acfa c'2 ab | (c'4 f'2) fg | (a4 c'2) ba | %7
 g3 a (bc' d'>)e | (g4 f2) z2 | (^c8 | d8) | B8 | z Ae^c A2 ab | (c'4 f'2) fg | (a4 a)c'd'c' | %15
 b3 g eg c'>b | aABc defg | (a4 a)c'ba | (c'4 c')bag | f2 z2 z4 | A4 B4 | A4 A2 A2 | A4 z4 |] %23

